assets/static/svgs/logos/logo-comms-full.svg

<svg width="1em" height="auto"  viewBox="0 0 427 109" fill="none" xmlns="http://www.w3.org/2000/svg">
<symbol id="item"
width="1em"
height="auto"
viewBox="0 0 427 109"
fill="none"
>
 <path d="M176.131 87.8182C187.35 87.8182 195.787 82.5455 201.262 75.6364L193.274 68.7273C189.235 73.8182 183.312 77.5455 176.131 77.5455C164.015 77.5455 155.309 68.4545 155.309 55.1818C155.309 41.5455 163.835 32.3636 175.952 32.3636C182.683 32.3636 188.338 35.2727 193.095 41.1818L201.082 34.3636C194.441 26.0909 185.286 22 175.952 22C155.488 22 144 36.8182 144 55.1818C144 76.3636 158.809 87.8182 176.131 87.8182Z" fill="#272D36"/> <path d="M224.062 88C237.525 88 247.039 78.6364 247.039 65.1818C247.039 51.5455 237.525 42.2727 224.062 42.2727C210.24 42.2727 201.086 52.0909 201.086 65.1818C201.086 78.1818 210.24 88 224.062 88ZM224.062 78.7273C216.523 78.7273 211.317 72.7273 211.317 65.1818C211.317 57.4545 216.433 51.4545 224.062 51.4545C231.242 51.4545 236.807 57 236.807 65.1818C236.807 73.1818 231.153 78.7273 224.062 78.7273Z" fill="#272D36"/> <path d="M250.192 87.2727H260.244V65.1818C260.244 56.4545 264.731 51.4545 270.745 51.4545C276.668 51.4545 279.451 56.1818 279.451 64.1818V87.2727H289.503V65.1818C289.503 56.4545 294.08 51.4545 299.735 51.4545C305.659 51.4545 308.261 56.1818 308.261 64.1818V87.2727H318.314V61.6364C318.314 48.3636 312.569 42.2727 302.966 42.2727C296.504 42.2727 290.939 44.8182 287.259 49.6364H287.08C284.477 44.6364 279.9 42.2727 273.976 42.2727C268.95 42.2727 263.924 44.6364 260.334 49H260.244V42.9091H250.192V87.2727Z" fill="#272D36"/> <path d="M323.428 87.2727H333.48V65.1818C333.48 56.4545 337.967 51.4545 343.981 51.4545C349.905 51.4545 352.687 56.1818 352.687 64.1818V87.2727H362.739V65.1818C362.739 56.4545 367.317 51.4545 372.971 51.4545C378.895 51.4545 381.497 56.1818 381.497 64.1818V87.2727H391.55V61.6364C391.55 48.3636 385.806 42.2727 376.202 42.2727C369.74 42.2727 364.175 44.8182 360.495 49.6364H360.316C357.713 44.6364 353.136 42.2727 347.212 42.2727C342.186 42.2727 337.16 44.6364 333.57 49H333.48V42.9091H323.428V87.2727Z" fill="#272D36"/> <path d="M410.665 88C421.794 88 427 82 427 74.5455C427 65.7273 421.166 64 411.832 60.2727C407.613 58.6364 404.921 57.0909 404.921 54.9091C404.921 52.1818 407.703 51.0909 409.678 51.0909C413.088 51.0909 417.127 52.4545 420.628 55.8182L425.654 47.8182C420.807 43.8182 415.781 42.2727 410.216 42.2727C401.241 42.2727 394.779 47.5455 394.779 54.8182C394.779 63.5455 400.972 66.8182 408.152 69.3636C413.896 71.3636 416.768 72.4545 416.768 74.7273C416.768 77.3636 414.524 79.0909 410.665 79.0909C405.28 79.0909 401.51 77.3636 398.01 73.9091L392.984 81.5455C397.561 85.6364 403.575 88 410.665 88Z" fill="#272D36"/> <circle cx="32.3816" cy="33.283" r="32.2852" fill="#FF4E64"/> <circle cx="79.0158" cy="33.283" r="32.2852" fill="#885ED5"/> <circle cx="32.3816" cy="76.3298" r="32.2852" fill="#138BFF"/> <circle cx="79.0158" cy="76.3298" r="32.2852" fill="#FBD3E0"/> 
</symbol>
</svg>

<svg width="1em" height="auto"    viewBox="0 0 427 109" fill="none" xmlns="http://www.w3.org/2000/svg">
<symbol id="item"
width="1em"
height="auto"
viewBox="0 0 427 109"
fill="none"
>
<path d="M176.131 87.818c11.219 0 19.656-5.272 25.131-12.182l-7.988-6.909c-4.039 5.091-9.962 8.819-17.143 8.819-12.116 0-20.822-9.092-20.822-22.364 0-13.637 8.526-22.818 20.643-22.818 6.731 0 12.386 2.909 17.143 8.818l7.987-6.818C194.441 26.09 185.286 22 175.952 22 155.488 22 144 36.818 144 55.182c0 21.182 14.809 32.636 32.131 32.636Z" fill="#272D36"/><path d="M224.062 88c13.463 0 22.977-9.364 22.977-22.818 0-13.637-9.514-22.91-22.977-22.91-13.822 0-22.976 9.819-22.976 22.91 0 13 9.154 22.818 22.976 22.818Zm0-9.273c-7.539 0-12.745-6-12.745-13.545 0-7.727 5.116-13.727 12.745-13.727 7.18 0 12.745 5.545 12.745 13.727 0 8-5.654 13.545-12.745 13.545ZM250.192 87.273h10.052V65.182c0-8.727 4.487-13.727 10.501-13.727 5.923 0 8.706 4.727 8.706 12.727v23.09h10.052v-22.09c0-8.727 4.577-13.727 10.232-13.727 5.924 0 8.526 4.727 8.526 12.727v23.09h10.053V61.637c0-13.272-5.745-19.363-15.348-19.363-6.462 0-12.027 2.545-15.707 7.363h-.179c-2.603-5-7.18-7.363-13.104-7.363-5.026 0-10.052 2.363-13.642 6.727h-.09v-6.09h-10.052v44.363ZM323.428 87.273h10.052V65.182c0-8.727 4.487-13.727 10.501-13.727 5.924 0 8.706 4.727 8.706 12.727v23.09h10.052v-22.09c0-8.727 4.578-13.727 10.232-13.727 5.924 0 8.526 4.727 8.526 12.727v23.09h10.053V61.637c0-13.272-5.744-19.363-15.348-19.363-6.462 0-12.027 2.545-15.707 7.363h-.179c-2.603-5-7.18-7.363-13.104-7.363-5.026 0-10.052 2.363-13.642 6.727h-.09v-6.09h-10.052v44.363ZM410.665 88C421.794 88 427 82 427 74.546c0-8.819-5.834-10.546-15.168-14.273-4.219-1.637-6.911-3.182-6.911-5.364 0-2.727 2.782-3.818 4.757-3.818 3.41 0 7.449 1.364 10.95 4.727l5.026-8c-4.847-4-9.873-5.545-15.438-5.545-8.975 0-15.437 5.272-15.437 12.545 0 8.727 6.193 12 13.373 14.546 5.744 2 8.616 3.09 8.616 5.363 0 2.637-2.244 4.364-6.103 4.364-5.385 0-9.155-1.727-12.655-5.182l-5.026 7.636C397.561 85.636 403.575 88 410.665 88Z" fill="#272D36"/><circle cx="32.382" cy="33.283" r="32.285" fill="#FF4E64"/><circle cx="79.016" cy="33.283" r="32.285" fill="#885ED5"/><circle cx="32.382" cy="76.33" r="32.285" fill="#138BFF"/><circle cx="79.016" cy="76.33" r="32.285" fill="#FBD3E0"/>
</symbol>
</svg>
